X: 3
T: B flat Major
R: three-two
M: 2/4
L: 1/8
K: Bb
|B,C DE|FGAB|cd e2|
K: C
|_B,C DE|_FG A_B|cd e2|
K:Bb
|Bcde|f2 ga|bc'|
W:This last the top half of the F whistle.
